X:21401
T:Doed a Ddel
R:
B:Tuneworks Tunebook 2 (https://www.tuneworks.co.uk/)
G:Tuneworks
Z:Jon Warbrick <jon.warbrick@googlemail.com>
M:6/8
L:1/8
K:D
|: A | "D" d2 d dcd | dcd dcd | "Em" e2 e e2 e | "A7" efd cBA |
"D" d2 d dcd | "D" dcd"G" efg | "A7" fed cBc | "D" d3- d2 :|
|: B | "D" A2 F d2 d | "G" B2 G GAB | "D" A2 F d2 f | "A7" ecB A3 |
"D" A2 F d2 d |"G" B3 g3 |"A7" fed cBc |"D" d3- d2 :|
